X: 1
T: Liam's Bear
C: Dougie MacDonald, Jerry Holland
B: Jerry Holland: The Second Collection, 2000; p.85 #231
R: jig
Z: 2015 John Chambers <jc:trillian.mit.edu>
M: 6/8
L: 1/8
K: A
E |\
"A"ABc A2E | "D"FAF "A"ECE | "A"A,CE "(F#m)"ABc | "Bm"BAF "D"FEF |\
"A"ABc A2E | "D"FAF "A"ECE | "A"A,CE "(F#m)"ABc | "E7"BAA "A"A2 :|
|: {c}B  |\
"A"Ace a2e | "D"f2a "A"ecB | "A"Ace "(F#m)"aec | "Bm"BcB "E7"EGB |\
"A"Ace a2e | "D"f2a "A"ecA | "D"dcd "E7"EGB | "A"cAA A2 :|
